svgs/regular/turtle.svg

<svg xmlns="http://www.w3.org/2000/svg" viewBox="0 0 640 512"><!-- Font Awesome Pro 6.0.0-alpha2 by @fontawesome - https://fontawesome.com License - https://fontawesome.com/license (Commercial License) --><path d="M637.129 160.5C631.879 139.75 618.254 122.25 601.004 109.875C556.254 78 545.129 64 507.628 64C468.003 64 434.128 87.625 421.378 121.875C380.753 71.5 317.752 32 248.377 32C232.252 32 84.626 43.875 35.5 191.5C30.125 207.625 31 224.625 37.5 240H32C14.375 240 0 254.375 0 272V288C0 299.875 6.625 310.75 17.125 316.375L98.626 359.125L70.5 408C61.875 422.75 61.875 441.25 70.5 456C79.001 470.75 94.876 480 112.001 480H149.001C166.126 480 182.001 470.875 190.501 456L218.251 408.125C258.502 418.5 315.752 419 357.877 408.125L385.503 456C394.002 470.875 409.878 480 427.003 480H464.003C481.128 480 497.003 470.75 505.503 456C514.128 441.25 514.128 422.75 505.503 408L474.878 354.875C505.503 334.125 526.129 304.875 536.379 272H551.379C607.754 272 651.879 219.125 637.129 160.5ZM81.126 206.625C100.251 149.125 167.501 80 247.627 80H248.377C328.502 80 395.753 149.125 414.878 206.625C418.128 216.5 408.253 239 384.128 239.75C383.253 239.75 114.626 240 114.626 240C92.126 240 75.501 223.5 81.126 206.625ZM551.379 224H504.003C492.753 314.375 429.128 325.625 407.503 334.25L464.003 432H427.003L380.253 351C313.377 372.875 271.502 375.75 195.751 351L149.001 432H112.001L165.251 339.875L66.375 288H383.003C415.128 288 463.878 266.25 464.003 208.25V153C464.003 133.125 475.628 122.5 485.753 117.25C517.253 101.125 532.879 120.25 575.004 150.25C585.629 157.875 592.004 170.25 592.004 183.375C592.004 205.75 573.754 224 551.379 224ZM512.003 144C503.128 144 496.003 151.125 496.003 160S503.128 176 512.003 176S528.004 168.875 528.004 160S520.878 144 512.003 144Z"/></svg>

<svg xmlns="http://www.w3.org/2000/svg" viewBox="0 0 640 512"><!--! Font Awesome Pro 6.0.0-alpha3 by @fontawesome - https://fontawesome.com License - https://fontawesome.com/license (Commercial License) --><path d="M637.1 160.5c-5.25-20.75-18.88-38.25-36.13-50.62C556.3 78 545.1 64 507.6 64c-39.63 0-73.5 23.62-86.25 57.88C380.8 71.5 317.8 32 248.4 32C232.3 32 84.63 43.88 35.5 191.5C30.13 207.6 31 224.6 37.5 240H32C14.38 240 0 254.4 0 272V288c0 11.88 6.625 22.75 17.13 28.38l81.5 42.75L70.5 408c-8.625 14.75-8.625 33.25 0 48C79 470.8 94.88 480 112 480H149c17.13 0 32.1-9.125 41.5-24l27.75-47.88c40.25 10.38 97.5 10.88 139.6 0L385.5 456c8.5 14.88 24.38 24 41.5 24h37c17.13 0 33-9.25 41.5-24c8.625-14.75 8.625-33.25 0-48l-30.63-53.13c30.63-20.75 51.25-50 61.5-82.88h15C607.8 272 651.9 219.1 637.1 160.5zM81.13 206.6C100.3 149.1 167.5 80 247.6 80h.75c80.13 0 147.4 69.12 166.5 126.6C418.1 216.5 408.3 239 384.1 239.8L114.6 240C92.13 240 75.5 223.5 81.13 206.6zM551.4 224h-47.38c-11.25 90.38-74.88 101.6-96.5 110.2L464 432h-37l-46.75-81c-66.88 21.88-108.8 24.75-184.5 0L149 432H112l53.25-92.13L66.38 288l316.6 .0002c32.13 0 80.88-21.75 81-79.75V153c0-19.88 11.63-30.5 21.75-35.75c31.5-16.12 47.13 3 89.25 33c10.63 7.625 17 20 17 33.13C592 205.8 573.8 224 551.4 224zM512 143.1c-8.875 0-16 7.125-16 16s7.125 16 16 16s16-7.125 16-16S520.9 143.1 512 143.1z"/></svg>
